X: 9
T: Acemaşîrân Aranağme (Aksak)
C: ?
O: Turkey
F: http://compmusic.upf.edu/node/140
N: acemasiran--aranagme--aksak--1--
N: makam= acemasiran
N: form= aranagme
N: usul= aksak = 9/8
M: 9/8
L: 1/16
K: C _B   
Q: 1/4=156
%%MIDI tuningsystem comma53
e2f2 g2a2 g2f2 e2d2 c2 | c2 d2e2 f2e2 d2c2 B2A2  | \
w:  ARANAĞME  |   | 
G2A2 B2c2 d2c2 B2A2 G2 | 
w:   | 
A2 G2F2 E2F4f6  | e2f2 g2a2 g2f2 e2d2 c2 | \
w:   |  ARANAĞME  | 
c2 d2e2 f2e2 d2c2 B2A2  | 
w:   | 
G2A2 B2c2 d2c2 B2A2 G2 | A2 G2F2 E2F8z2  | |


